svg/fluentui-system-icons/ic_fluent_dual_screen_desktop_24_filled.svg

<svg width="24" height="24" viewBox="0 0 24 24" fill="none" xmlns="http://www.w3.org/2000/svg">
<path d="M7.5 9.99957V21.9996L3.75 22C2.83183 22 2.07881 21.2929 2.0058 20.3935L2 20.25V11.7498C2 10.8317 2.70711 10.0787 3.60647 10.0056L3.75 9.99985L7.5 9.99957ZM12.25 9.99985C13.1682 9.99985 13.9212 10.707 13.9942 11.6063L14 11.7498V20.25C14 21.1682 13.2929 21.9212 12.3935 21.9942L12.25 22L8.5 21.9996V9.99957L12.25 9.99985ZM10.6438 18.5H10.1438L10.042 18.5068C9.67591 18.5565 9.39376 18.8703 9.39376 19.25C9.39376 19.6297 9.67591 19.9435 10.042 19.9932L10.1438 20H10.6438L10.7455 19.9932C11.1116 19.9435 11.3938 19.6297 11.3938 19.25C11.3938 18.8358 11.058 18.5 10.6438 18.5ZM5.89376 18.5H5.39376L5.29199 18.5068C4.92592 18.5565 4.64376 18.8703 4.64376 19.25C4.64376 19.6297 4.92592 19.9435 5.29199 19.9932L5.39376 20H5.89376L5.99553 19.9932C6.36161 19.9435 6.64376 19.6297 6.64376 19.25C6.64376 18.8358 6.30797 18.5 5.89376 18.5ZM19.75 2C20.9409 2 21.9156 2.92516 21.9948 4.09595L22 4.25V13.25C22 14.4409 21.0748 15.4156 19.904 15.4948L19.75 15.5H17V17.5H18.2504C18.6646 17.5 19.0004 17.8358 19.0004 18.25C19.0004 18.6297 18.7182 18.9435 18.3521 18.9932L18.2504 19H15V17.5H15.5V15.5H15V11.5C15 10.1745 13.9685 9.08996 12.6644 9.00532L12.5 9H4V4.25C4 3.05914 4.92516 2.08436 6.09595 2.00519L6.25 2H19.75Z" fill="#212121"/>
</svg>

<svg xmlns="http://www.w3.org/2000/svg" width="24" height="24"><path d="M7.5 10v12H3.75a1.75 1.75 0 0 1-1.744-1.607L2 20.25v-8.5a1.75 1.75 0 0 1 1.606-1.744L3.75 10H7.5Zm4.75 0a1.75 1.75 0 0 1 1.744 1.606l.006.144v8.5a1.75 1.75 0 0 1-1.607 1.744L12.25 22H8.5V10h3.75Zm-1.606 8.5h-.5l-.102.007a.75.75 0 0 0 0 1.486l.102.007h.5l.101-.007a.75.75 0 0 0-.101-1.493Zm-4.75 0h-.5l-.102.007a.75.75 0 0 0 0 1.486l.102.007h.5l.102-.007a.75.75 0 0 0-.102-1.493ZM19.75 2a2.25 2.25 0 0 1 2.245 2.096L22 4.25v9a2.25 2.25 0 0 1-2.096 2.245l-.154.005H17v2h1.25a.75.75 0 0 1 .102 1.493L18.25 19H15v-1.5h.5v-2H15v-4a2.5 2.5 0 0 0-2.336-2.495L12.5 9H4V4.25a2.25 2.25 0 0 1 2.096-2.245L6.25 2h13.5Z"/></svg>
